X:1
T:Cross of Jesus
T:Cross of Jesus
T:Courtesy of the Cyber Hymnal (http://www.cyberhymnal.org)
T:Courtesy of the Cyber Hymnal (http://www.cyberhymnal.org)
Z:Courtesy of the Cyber Hymnal (http://www.cyberhymnal.org)
%%score { ( 1 2 ) ( 3 4 ) }
L:1/8
Q:1/4=108
M:4/4
K:Ab
V:1 treble nm="P1"
V:2 treble 
V:3 bass nm="P2"
V:4 bass 
V:1
"^Editor: John Henry Fowler""^( Revision: 11-26-2007 )" c2 A2 E2 E2 | %1
 E2"^From the Oratorio:  \"The Crucifixion\"" A2 A2"^( 1887 )" G2 | A2 c2 (FG) A2 | %3
"^John Stainer""^( 1840 - 1901 )" d2 c2 c2 B2 | A2 d2 d2 c2 | B2 f2 f2 e2 | e2 d2 (cB) A2 | %7
 A2 G2 A4 |] %8
V:2
 E2 C2 D2 D2 | C2 (C=D) E2 E2 | E2 C2 F2 (EF) | G2 A2 A2 G2 | AG F2 E2 (A_G) | F2 (FG) A2 _G2 | %6
 F2 (GF) =E2 (C=D) | E2 (ED) C4 |] %8
V:3
 A,2 A,2 B,2 B,2 | A,2 (A,B,) C2 B,2 | A,2 A,2 (A,B,) C2 | D2 E2 E4 | C2 (DC) B,2 C2 | %5
 D2 A,2 C2 A,2 | A,2 (B,A,) G,2 (A,B,) | C2 B,2 A,4 |] %8
V:4
 A,,2 A,2 A,2 G,2 | A,2 F,2 E,2 (E,D,) | C,2 A,,2 D,2 C,2 | B,,2 A,,2 E,4 | F,2 (B,A,) G,2 A,2 | %5
 D,2 D,2 C,2 C,2 | D,2 B,,2 C,2 F,2 | E,2 E,2 A,,4 |] %8

